frontend/public/svg/interface/mail.svg

<svg width="178" height="144" viewBox="0 0 178 144" fill="none" xmlns="http://www.w3.org/2000/svg">
<g clip-path="url(#clip0)">
<path d="M176.582 68.1415C176.193 60.8736 175.883 53.4759 175.581 46.3229C175.288 39.3568 174.985 32.1533 174.609 25.0713C174.065 14.7867 168.774 7.29417 159.308 3.40359C155.965 2.0307 151.852 1.30472 146.741 1.18222C133.204 0.860342 119.439 0.711559 106.126 0.56691C101.387 0.515217 96.649 0.46112 91.9115 0.40465C91.7922 0.305737 91.6424 0.251378 91.4875 0.251299H80.4525C71.4852 0.251299 62.5185 0.253954 53.5531 0.258298C51.9122 0.258298 50.266 0.254587 48.6257 0.250025C43.6943 0.233084 38.5944 0.219024 33.5787 0.401468C26.7308 0.649721 21.4578 1.98858 16.9854 4.61576C7.92797 9.93791 3.09649 17.5349 2.62514 27.1972C2.37682 32.2854 2.29317 37.4607 2.21277 42.4661L2.16026 45.6C2.08765 49.801 2.01178 54.001 1.93268 58.2003C1.67788 72.0374 1.414 86.3455 1.30962 100.423C1.26747 106.027 1.55015 112.656 3.96137 119.34C7.52729 129.227 14.1048 135.618 24.07 138.88C33.3414 141.843 43.0098 143.363 52.7388 143.384C76.9223 143.698 102.288 143.846 132.141 143.846H137.94C143.426 143.94 148.903 143.344 154.242 142.073C166.482 138.926 173.735 131.387 175.801 119.662C176.458 115.685 176.914 111.676 177.168 107.652C178.062 95.4416 177.391 83.0674 176.742 71.0991L176.582 68.1415ZM63.4885 132.736C53.0131 132.704 41.8199 132.306 30.9451 129.625C26.5694 128.547 23.4398 127.284 20.9391 125.576L74.9078 75.696L76.4146 77.325C77.9162 78.9494 79.4664 80.6259 81.0322 82.2874C85.5641 87.0981 90.0105 87.4923 95.0223 83.5293C97.073 81.9089 99.0213 80.0753 100.905 78.3082C101.619 77.6371 102.34 76.9614 103.071 76.2889L155.893 129.871C154.067 131.379 151.86 131.695 149.535 132.028L148.867 132.124C146.37 132.458 143.852 132.613 141.332 132.587L126.557 132.641C105.884 132.718 84.5106 132.799 63.4885 132.736ZM145.959 21.38C138.055 28.5507 129.883 35.9648 122.091 43.5212C114.315 51.0613 106.691 58.9635 99.317 66.6077C96.2652 69.7718 93.1142 73.0388 90.0027 76.2264L24.3676 11.5338C24.8374 11.4082 25.3036 11.2814 25.7661 11.1532C27.5555 10.6639 29.2458 10.2004 30.9723 9.85959C39.5572 8.16547 48.3961 8.39587 56.9447 8.62197C58.8541 8.67149 60.7628 8.72049 62.6709 8.75176C65.5742 8.79737 68.5293 8.89466 71.386 8.98914C73.8672 9.07058 76.4327 9.15529 78.9594 9.20546C86.0647 9.34666 93.1699 9.48219 100.276 9.61211C115.635 9.90011 131.517 10.1989 147.134 10.5755C149.33 10.6973 151.513 11.0061 153.657 11.4988C154.499 11.6675 155.373 11.8407 156.24 11.9919V12.0135C152.824 15.1509 149.335 18.3175 145.957 21.3826L145.959 21.38ZM35.4148 100.077C28.8321 106.367 22.0329 112.866 15.4579 119.507C12.7271 113.032 11.3117 107.718 10.8903 102.389C9.72326 87.6069 10.2082 72.8929 10.8086 59.0891C11.0829 52.7942 11.1924 46.3916 11.2988 40.1996C11.3714 35.9904 11.4466 31.6377 11.5724 27.3633C11.702 22.8296 13.2107 19.6483 16.5848 16.8367L67.8693 67.4697C57.429 79.036 46.2384 89.7318 35.411 100.082L35.4148 100.077ZM164.703 118.401C164.463 119.7 164.142 120.982 163.742 122.24C163.598 122.728 163.454 123.217 163.318 123.706L163.112 123.775L108.749 70.5361C127.542 51.0534 145.364 34.4378 163.19 19.7771C163.266 20.1218 163.344 20.4573 163.421 20.7844C163.738 21.9717 163.949 23.1849 164.051 24.4102C164.652 36.7407 165.142 48.9096 165.502 58.1347C165.84 66.7915 166.128 75.3324 166.358 83.5222C166.647 93.8921 166.679 106.148 164.699 118.404L164.703 118.401Z" fill="black"/>
</g>
<defs>
<clipPath id="clip0">
<rect width="177" height="144" fill="white" transform="translate(0.777344)"/>
</clipPath>
</defs>
</svg>

<svg xmlns="http://www.w3.org/2000/svg" width="178" height="144" fill="none" viewBox="0 0 178 144"><g clip-path="url(#a)"><path fill="#000" d="M176.582 68.142c-.389-7.268-.699-14.666-1.001-21.82-.293-6.965-.596-14.169-.972-21.25-.544-10.285-5.835-17.778-15.301-21.668-3.343-1.373-7.456-2.1-12.567-2.222-13.537-.322-27.302-.47-40.615-.615Q99.018.489 91.911.405a.67.67 0 0 0-.424-.154H80.453q-13.452 0-26.9.007c-1.64 0-3.287-.003-4.927-.008C43.694.233 38.594.219 33.579.401 26.73.65 21.458 1.99 16.985 4.616 7.928 9.938 3.096 17.535 2.625 27.197c-.248 5.088-.332 10.264-.412 15.27L2.16 45.6q-.108 6.302-.227 12.6c-.255 13.837-.519 28.146-.623 42.223-.043 5.604.24 12.233 2.651 18.917 3.566 9.887 10.144 16.278 20.109 19.54a94.9 94.9 0 0 0 28.669 4.504c24.183.314 49.549.462 79.402.462h5.799a65.6 65.6 0 0 0 16.302-1.773c12.24-3.147 19.493-10.686 21.559-22.411a120 120 0 0 0 1.367-12.01c.894-12.21.223-24.585-.426-36.553zM63.489 132.736c-10.476-.032-21.67-.43-32.544-3.111-4.376-1.078-7.505-2.341-10.006-4.049l53.969-49.88 1.507 1.629c1.501 1.624 3.051 3.3 4.617 4.962 4.532 4.811 8.978 5.205 13.99 1.242 2.051-1.62 4-3.454 5.883-5.22.714-.672 1.435-1.348 2.166-2.02l52.822 53.582c-1.826 1.508-4.033 1.824-6.358 2.157l-.668.096a53 53 0 0 1-7.535.463l-14.775.054c-20.673.077-42.046.158-63.068.095m82.47-111.356c-7.904 7.17-16.076 14.585-23.868 22.141-7.776 7.54-15.4 15.443-22.774 23.087-3.052 3.164-6.203 6.43-9.314 9.618L24.368 11.534q.705-.19 1.398-.38c1.79-.49 3.48-.954 5.206-1.294 8.585-1.695 17.424-1.464 25.973-1.238 1.91.05 3.818.098 5.726.13 2.903.045 5.858.143 8.715.237 2.481.082 5.047.166 7.573.216a13417 13417 0 0 0 21.317.407c15.359.288 31.241.587 46.858.963a38.7 38.7 0 0 1 6.523.924c.842.168 1.716.342 2.583.493v.021a2316 2316 0 0 1-10.283 9.37zM35.415 100.077c-6.583 6.29-13.382 12.789-19.957 19.43-2.73-6.475-4.146-11.789-4.568-17.118-1.167-14.782-.682-29.496-.081-43.3.274-6.295.383-12.697.49-18.89.072-4.209.148-8.561.273-12.836.13-4.533 1.639-7.715 5.013-10.526L67.869 67.47c-10.44 11.566-21.63 22.262-32.458 32.612zm129.288 18.324a32 32 0 0 1-.961 3.839c-.144.488-.288.977-.424 1.466l-.206.069-54.363-53.239c18.793-19.483 36.615-36.098 54.441-50.759q.115.517.231 1.007c.317 1.188.528 2.4.63 3.626.601 12.33 1.091 24.5 1.451 33.725.338 8.657.626 17.197.856 25.387.289 10.37.321 22.626-1.659 34.882z"/></g><defs><clipPath id="a"><path fill="#fff" d="M.777 0h177v144h-177z"/></clipPath></defs></svg>
